!!!!SEGMENT: pl-wtm--r-2039-iii--001_smietanski-emil-wladyslaw--fuga-ii.krn
!!!cenid: 18xx:2024
!!!COM: Śmietański, Emil Władysław
!!!COM-rismID: pe50041781
!!!CDT: 1845-1886
!!!CNT: Polish
!!!OTL: Fuga II
!!!PDT:
!!!AGN: Secular; Fugue
!!!SMS-siglum: PL-Wtm
!!!SMS-shelfmark: R 2039-III
!!!SMS-shelfwork: 001 W
!!!SMS-variant:
!!!SMS-altvar:
!!!NIFC-rismSourceID: 1001111530
!!!NIFC-rismChildID: 1001111530
!!!NIFC-islandoraID: pl-wtm:47519
!!!URL-pdf-islandora: https://repozytorium.nifc.pl/islandora/object/pl-wtm%3A47519/datastream/PDF/view
!!!URL-scan: https://polish.musicsources.pl/pl/lokalizacje/galeria/rekopisy/7709/1
!!!ONB-nifc: UWAGA: skan 0005, str. 130, tytuł „II”, incpl.
!!!AIN: 1 forte
!!!key:
**kern	**kern
*part1	*part1
*staff2	*staff1
*Iforte	*Iforte
*I"Fortepian	*I"Fortepian
*I'pf	*I'pf
*clefF4	*clefG2
*k[]	*k[]
*C:	*C:
*M2/2	*M2/2
*met(c|)	*met(c|)
=1	=1
*	*2\right
!	!LO:TX:a:t=II.
1ryy	2cc\
.	2g\
=2	=2
4r	2a\
8f/L	.
8e/J	.
8d/L	4.dd\
8e/	.
8f/	.
8f#X/J	8cc\
=3	=3
8g/L	1b
16a/L	.
16g/JJ	.
16f/LL	.
16a/	.
16g/	.
16f/JJ	.
16e/LL	.
16g/	.
16f/	.
16e/JJ	.
16d/LL	.
16f/	.
16e/	.
16d/JJ	.
=4	=4
*	*^
8e/L	2gg/	4cc\
8d/	.	.
8c/	.	8e\L
8d/J	.	8f\J
8e/L	2cc/	8g\
8d/	.	8r
8e/	.	4r
8f/J	.	.
=5	=5	=5
8g/L	2ee/	4r
8g#X/	.	.
8a/	.	8cc\L
8gn/J	.	8b\J
4f#X/	4.aa/	8a\L
.	.	8b\
4e/	.	8cc\
.	8gg/	8cc#X\J
=6	=6	=6
1d	1ff#X	8dd\L
.	.	16ee\L
.	.	16dd\JJ
.	.	16cc\LL
.	.	16ee\
.	.	16dd\
.	.	16cc\JJ
.	.	16b\LL
.	.	16dd\
.	.	16cc\
.	.	16b\JJ
.	.	16a\LL
.	.	16cc\
.	.	16b\
.	.	16a\JJ
!!LO:LB:g=original
=7	=7	=7
*^	*	*
8g/L	1r	4gg/	2b\
16a/L	.	.	.
16g/JJ	.	.	.
16f/LL	.	4dd/	.
16a/	.	.	.
16g/	.	.	.
16f/JJ	.	.	.
16e/LL	.	4ee/	4cc\
16g/	.	.	.
16f/	.	.	.
16e/JJ	.	.	.
16d/LL	.	4ff/	4b\
16f/	.	.	.
16e/	.	.	.
16d/JJ	.	.	.
=8	=8	=8	=8
*	*2\right	*	*
8c/L	2C\	4ee/	8cc\L
8e/	.	.	8g\
8f/	.	4r	8a\
8e/J	.	.	16g\L
.	.	.	16a\JJ
8d/L	2GG\	2r	4b\
8e/	.	.	.
8f/	.	.	8a\L
16g/L	.	.	8b\J
16f/JJ	.	.	.
=9	=9	=9	=9
8e/L	2AA\	4r	8cc\L
8d/	.	.	8b\
8c/	.	8ff/L	8a\
8c#X/J	.	8ee/J	8g\J
4d/	4.D\	8dd/L	4f\
.	.	8ee/	.
4rc	.	8ff/	8dd\L
.	8C\	8ff#X/J	8ee-X\J
*v	*v	*	*
=10	=10	=10
1BB	8gg/L	2dd\
.	16aa/L	.
.	16gg/JJ	.
.	16ff/LL	.
.	16aa/	.
.	16gg/	.
.	16ff/JJ	.
.	16ee/LL	4g\
.	16gg/	.
.	16ff/	.
.	16ee/JJ	.
.	16dd/LL	8a-X\L
.	16ff/	.
.	16ee/	16g\L
.	16dd/JJ	16f\JJ
=11	=11	=11
*^	*	*
2G/	4C\	8cc/L	4.e\
.	.	8b/	.
.	4r	8cc/	.
.	.	8dd/J	8f\
2C/	2r	2ee/	8g\L
.	.	.	8cc\
.	.	.	8b\
.	.	.	8a\J
!!LO:LB:g=original
=12	=12	=12	=12
2C/	4r	8cc/L	2g\
.	.	8b/J	.
.	8C\L	4cc/	.
.	8BB-X\J	.	.
4.A/	8AA\L	4ff/	8cc\L
.	8BBn\	.	8dd\
.	8C\	4ee/	8cc\
8G/	8C#X\J	.	8b\J
=13	=13	=13	=13
1F#X	8D\L	1dd	2a\
.	16E\L	.	.
.	16D\JJ	.	.
.	16C\LL	.	.
.	16E\	.	.
.	16D\	.	.
.	16C\JJ	.	.
.	16BB\LL	.	4b\
.	16D\	.	.
.	16C\	.	.
.	16BB\JJ	.	.
.	16AA\LL	.	16cc\LL
.	16C\	.	16a\
.	16BB\	.	16dd\
.	16AA\JJ	.	16cc\JJ
=14	=14	=14	=14
8G/L	1GG	[4dd/	4b\
16A/L	.	.	.
16G/JJ	.	.	.
16Fn/LL	.	16dd/LL]	4r
16A/	.	16cc/J	.
16G/	.	8b/J	.
16F/JJ	.	.	.
16E/LL	.	16cc/LL	2r
16G/	.	16cc#X/	.
16F/	.	16dd/	.
16E/JJ	.	16ee/JJ	.
16D/LL	.	16ff/LL	.
16F/	.	16b/	.
16E/	.	16ccn/	.
16D/JJ	.	16dd/JJ	.
=15	=15	=15	=15
4C/	8C\L	4.ee/	2cc\
.	8BB\	.	.
4r	8C\	.	.
.	8D\J	8ff/	.
2r	8E\L	8gg/L	2g\
.	16F\L	8cc/	.
.	16E\JJ	.	.
.	8D\L	8b/	.
.	8E\J	[8cc/J	.
=16	=16	=16	=16
4r	8F\L	8cc/L]	2a\
.	8E\	8cc#X/	.
8f/L	8D\	8dd/	.
8e/J	8C#X\J	8ee/J	.
8d/L	2D\	8ff/L	4.dd\
8e/	.	8gg/	.
8f/	.	8aa/	.
8f#X/J	.	8aa-X/J	8cc#\
!!LO:LB:g=original
=17	=17	=17	=17
8g/L	1GG	8gg/L	2b\
16a/L	.	16ff/L	.
16g/JJ	.	16ee/JJ	.
16f/LL	.	8dd/L	.
16a/	.	.	.
16g/	.	16ee/L	.
16f/JJ	.	16dd/JJ	.
16e/LL	.	8cc/L	[4a\
16g/	.	.	.
16f/	.	16dd/L	.
16e/JJ	.	16cc/JJ	.
16d/LL	.	4b/	8a\L]
16f/	.	.	.
16e/	.	.	16g\L
16d/JJ	.	.	16f\JJ
=18	=18	=18	=18
8c/L	2C\	4cc/	2e\
8G/	.	.	.
8c/	.	4r	.
8B-X/J	.	.	.
8A/L	4.F\	2r	4.a\
8Bn/	.	.	.
8c/	.	.	.
8c#X/J	8E\	.	8g\
=19	=19	=19	=19
[2d/	8D\L	1ryy	1f
.	8AA\	.	.
.	8D\	.	.
.	8C\J	.	.
8d/L]	8BB\L	.	.
8c/	8C\	.	.
8B/	8D\	.	.
8A/J	8D#X\J	.	.
=20	=20	=20	=20
!LO:N:vis=2.	!	!	!
[2G#X/	[2E\	2ee/	8e\L
.	.	.	8B\
.	.	.	8c\
.	.	.	8d\J
8G#/L]	4.E\]	2b/	8e\L
8A/J	.	.	8f#X\
4B/	.	.	8g#X\
.	8D\	.	16f#\L
.	.	.	16g#\JJ
=21	=21	=21	=21
4E/	8C\L	2cc/	4a\
.	8BB\	.	.
2A/	8AA\	.	4r
.	16BB\L	.	.
.	16C\JJ	.	.
!	!	!	!LO:N:vis=1
.	8D\L	4.ff/	2rg
.	16E\L	.	.
.	16D\JJ	.	.
4B-X/	8C#X\L	.	.
.	16D\L	8ee/	.
.	16E\JJ	.	.
!!LO:LB:g=original
=22	=22	=22	=22
8A/L	[2F\	1dd	2d\
8B-X/	.	.	.
8A/	.	.	.
8G#X/J	.	.	.
!LO:N:vis=1	!	!	!
2A/	8F\L]	.	2A\
.	16E\L	.	.
.	16F\J	.	.
.	8Gn\	.	.
.	8F\J	.	.
=23	=23	=23	=23
1G#X	8E\L	[1ee	2B\
.	16F\L	.	.
.	16E\JJ	.	.
.	8D\L	.	.
.	16E\L	.	.
.	16D\JJ	.	.
.	8C\L	.	4.e\
.	16D\L	.	.
.	16C\JJ	.	.
.	8BB\L	.	.
.	16C\L	.	8d\
.	16BB\JJ	.	.
=24	=24	=24	=24
2A/	2AA\	8ee/L]	2c\
.	.	8cc/	.
.	.	8dd/	.
.	.	8ee/J	.
2d/	2A\	8ff/L	[2a\
.	.	16ee/L	.
.	.	16ff/J	.
.	.	8gg/	.
.	.	8ff/J	.
=25	=25	=25	=25
2c/	2AA\	2ee/	8a\L]
.	.	.	8e\
.	.	.	8a\
.	.	.	16g\L
.	.	.	16f\JJ
4.G#X/	8BB\L	4.dd/	[2e\
.	8C\	.	.
.	8BB\	.	.
8A/	8AA\J	8cc/	.
=26	=26	=26	=26
4B/	4GG#X\	8b/	8e\L]
.	.	8r	8d\J
4E/	4AA\	8cc/L	4c\
.	.	8b/J	.
2A/	4C\	8a/L	2e\
.	.	8b/	.
.	4AA\	8cc/	.
.	.	8cc#X/J	.
=27	=27	=27	=27
1A	1F	8dd/L	2a\
.	.	16ee/L	.
.	.	16dd/JJ	.
.	.	16cc/LL	.
.	.	16ee/	.
.	.	16dd/	.
.	.	16cc/JJ	.
.	.	16b/LL	4r
.	.	16dd/	.
.	.	16cc/	.
.	.	16b/JJ	.
.	.	16a/LL	8d\L
.	.	16cc/	.
.	.	16b/	8d#X\J
!	!	!LO:TX:t=P:problem=partia urywa się w takcie nr 27	!
.	.	16a/JJ	.
*v	*v	*	*
*	*v	*v
==	==
*-	*-
!!!system-decoration: {(s1,s2)}
!!!RDF**kern: > = above
!!!RDF**kern: < = below
!!!ENC: Andrzej Kubiczek
!!!END: 2021-05-25
!!!ENC: Krzysztof Stępień
!!!END: 2021-05-08
!!!YEC: Copyright 2022 Narodowy Instytut Fryderyka Chopina (https://polishscores.org)
!!!YEM: License CC-BY-4.0 (https://creativecommons.org/licenses/by/4.0)
